packages/bezier-icons/icons/call-outgoing.svg

<svg width="24" height="24" viewBox="0 0 24 24" fill="none" xmlns="http://www.w3.org/2000/svg">
<path fill-rule="evenodd" clip-rule="evenodd" d="M15.0002 3.0001H19.5002C20.3272 3.0001 21.0002 3.6731 21.0002 4.5001V9.0001C21.0002 9.55238 20.5525 10.0001 20.0002 10.0001C19.4479 10.0001 19.0002 9.55238 19.0002 9.0001V6.4181L14.4148 11.0009C14.024 11.3914 13.3903 11.3908 13 10.9999C12.6098 10.6091 12.6098 9.97577 13.0005 9.58549L17.5902 5.0001H15.0002C14.4479 5.0001 14.0002 4.55238 14.0002 4.0001C14.0002 3.44781 14.4479 3.0001 15.0002 3.0001ZM7.75088 16.2532C2.58593 11.0883 2.58593 6.56896 4.19998 4.95491C5.16841 3.98648 6.58425 3.72371 7.42807 4.30928C8.20282 4.82579 9.36494 6.28347 9.36493 7.53739C9.36493 8.29362 8.80701 8.94392 8.34719 9.47987C8.0219 9.85903 7.7457 10.181 7.75088 10.4427C7.76339 11.0743 8.45799 12.7177 9.8722 14.1319C11.2864 15.5461 12.9298 16.2407 13.5615 16.2532C13.8232 16.2584 14.1451 15.9822 14.5243 15.6569C15.0602 15.1971 15.7105 14.6392 16.4667 14.6392C17.7207 14.6392 19.1783 15.8013 19.6948 16.5761C20.2804 17.4199 20.0176 18.8357 19.0492 19.8042C17.4352 21.4182 12.9158 21.4182 7.75088 16.2532Z" fill="#313234"/>
</svg>

<svg xmlns="http://www.w3.org/2000/svg" width="24" height="24" fill="none" viewBox="0 0 24 24"><path fill="#313234" fill-rule="evenodd" d="M15 3h4.5c.827 0 1.5.673 1.5 1.5V9a1 1 0 1 1-2 0V6.418l-4.585 4.583A1 1 0 0 1 13 9.585L17.59 5H15a1 1 0 1 1 0-2M7.75 16.253C2.587 11.088 2.587 6.57 4.2 4.955c.968-.969 2.384-1.231 3.228-.646.775.517 1.937 1.974 1.937 3.228 0 .757-.558 1.407-1.018 1.943-.325.379-.601.701-.596.963.012.631.707 2.275 2.121 3.689s3.058 2.109 3.69 2.121c.261.005.583-.27.962-.596.536-.46 1.187-1.018 1.943-1.018 1.254 0 2.711 1.162 3.228 1.937.585.844.323 2.26-.646 3.228-1.614 1.614-6.133 1.614-11.298-3.55" clip-rule="evenodd"/></svg>
